raptor.svg

<?xml version="1.0" encoding="UTF-8" standalone="no"?>
<svg xmlns:rdf="http://www.w3.org/1999/02/22-rdf-syntax-ns#" xmlns="http://www.w3.org/2000/svg" height="338.67" width="370.45" version="1.1" xmlns:cc="http://creativecommons.org/ns#" xmlns:dc="http://purl.org/dc/elements/1.1/">
 <metadata>
  <rdf:RDF>
   <cc:Work rdf:about="">
    <dc:format>image/svg+xml</dc:format>
    <dc:type rdf:resource="http://purl.org/dc/dcmitype/StillImage"/>
    <dc:title>Perl 5 Raptor</dc:title>
   </cc:Work>
  </rdf:RDF>
 </metadata>
 <title>Perl 5 Raptor</title>
 <description>Copyright (C) 2012, Sebastian Riedel.</description>
 <g fill="none" transform="translate(-25.586 -24.327)">
  <path fill="#000" d="m273 205c-8 8-7 9-11 18-4 8-5 8-4 15 0 4 2 3 6 7 2 1 3 2 4 3 2 3 1 3 3 5 2 4 3 2 5 6 2 5 2 6 1 12 0 4-3 6-3 10-1 10-2 18-2 19 0 8 0 8-1 16 0 8-1 8-3 15-1 3-2 2-3 5s0 2-1 5c-1 2-2 3-3 4h-2c-2 1-2 0-4 1s-3 0-4 2c-2 2-2 7-2 7s-1-3-2-5c0-1-1-2 0-5 0-3 1-3 2-6 1-2 3-4 3-4-4 2-4 3-9 5-3 1-3 1-6 0-2-1-2-2-2-2s-3-1-5-1c-3 1-7 6-7 6s0-5 2-8c1-4 1-4 4-6s4 0 7-2c5-3 9-8 9-8s-3-1-5-2c-3-2-3-2-5-5-1-2-1-3-1-5 1-2 3-4 3-4s2-2 2-4c1-2 1-3 0-5-1-1-2-1-5-1-2 0-2-1-4 0-3 2-6 5-6 5s0-4 2-6c3-5 3-5 8-7 4-2 5-2 9-2 4 1 5 2 8 5 2 1 3 11 3 11s1-11 3-16c1-4 0-9 0-9s-4 2-8 1c-6-1-7-1-13-5-5-5-5-5-8-12-2-4-1-6-3-10-1-4-4-4-6-7-3-5-6-10-6-10v12 10c-1 5-2 6-2 11 0 6 1 5 3 10 2 6 4 3 5 10 0 3-2 9-2 9s-1 5-2 11c-1 8 0 9-1 17l-4 14s-1 6-5 10c-5 5-5 6-13 8-3 1-3 0-5 0-2 1-2 1-3 1-1 1-2 0-4 1s-2 1-4 3c-2 1-5 5-5 5s0-3 1-7 6-7 6-7h-4c-2 1-2 1-4 1-3 1-3 0-6 0-3 1-6 5-6 5s0-4 2-7 3-3 6-5c3-1 4 1 6-1 7-4 7-5 13-10 4-4 1-3 0-6-1-2-1-2-1-4 0-1 3-3 1-3-4 1-6 1-7 4-2 3 1 9 1 9s-6-2-7-5c-1-4-2-7-1-10 2-4 4-8 8-10 5-2 9 4 12 2 4-3 3-3 4-8 1-10 3-10 1-20-3-9-5-9-10-18-3-7-3-7-5-14s2-9-1-14c-2-3-5-4-9-3-3 1-4 3-5 6 0 5 2 5 3 10 2 6 1 6 2 12 0 4 1 4 1 7-1 3-1 3-2 5-2 5 0 5-2 9s-5 6-5 6 1-7 0-15c0-2-1-1-2-4-1-4 0-5-1-9l-2-18s-2 13-3 27c0 3 1 3 1 6 0 2-1 2-2 5v11l2 10s-3-2-5-5c-2-4-3-4-5-9-1-3-1-3-1-7 0-5 1-5 1-10 1-11 1-22 1-22l-8 15s0 3-1 5c-2 3-4 2-5 4-2 2-1 3 0 6 2 3 6 6 6 6s-6-1-10-4c-3-3-3-4-4-9-1-2-1-3 1-6 7-14 8-13 17-27 6-9 9-18 12-19 2-2 24 1 24-2-1-3-31-24-33-25-3-1-4 6-7 12-2 4 0 5-3 7-4 2-6 3-11 1-15-7-13-12-28-19-4-1-7 0-9 2-5 5-7 13-5 13 1 1 2-1 4 0 2 0 4-1 6-1 5-1 8 2 8 2s-4 0-7 2c-3 1-4 2-5 4s-3 1-4 2c0 0-1 1 0 2s2-1 4-1c1 0 4-1 7-2 4-2 4-2 8-5 2-2 5-4 5-4s0 4-2 7c-3 5-4 6-7 8-5 4-8 3-8 4-1 2-1 1-2 2 0 1 0 2 1 2 1-1 4-1 5-1 1 1 3 0 5-1 5-3 8-8 8-8s-1 8-5 11-5 3-6 3l-2 2c-2 1-2 1-5 1-2-1-7-4-12-7-6-4-5-5-8-9-5-6-8-8-7-14s4-14 13-23c6-5 10-8 18-6 16 3 28 17 30 17 1-1 8-21 8-32s-1-17-5-30c-4-16-8-31-10-32s-9-1-19-3c-14-1-16-2-30-3-16-1-27 1-32 0-4-1-4-2-5-3s-2-4-1-4 2-1 2-1l-2-12 6 11h1l-3-15 6 14h2l-2-16 6 15 3-1-2-11 5 10h3l-1-11 4 10h3l-3-13 6 12 2-1-1-8 5 6 2-1-2-9 6 7h1l-1-8 3 7 2-1v-4l2 4h1v-8l3 7h2v-5l3 4h2l2-5 2 4s2 0 7-1c6-2 12-5 12-5l-21-4-3 5-1-6-2-1-3 5-1-5-2-1-3 6-1-7h-2l-2 6-2-7h-2l-1 9-2-10h-1l-2 9-2-9h-1l-1 12-2-12h-1l-1 9-1-9h-2l-2 12-1-12h-1l-2 6-1-7h-2l-2 10v-11h-2l-1 9-1-9-1-1-2 14-1-14h-1l-3 12-1-13s0 1-4-3c-5-3-1-8 1-12 3-5 5-4 11-5 23-2 22 0 45-1 9-1 10-4 18-2 7 1 8 2 14 5 8 3 9 2 16 5 8 3 9 3 16 8 6 4 7 4 11 11 5 9 5 9 7 20 4 19 4 35 4 40s1 4 5 6c6 3 6 2 13 3 10 1 11 0 21 2 8 2 9 1 16 4s13 9 13 9 7 2 14 6c4 2 4 3 8 5 5 1 11 1 11 1s14 0 29-2 15-1 31-4c10-3 19-7 19-7s9-5 7-10-9-5-13-10c-3-3-4-6-4-9-1-3 0-7 4-11 3-5 7-8 16-8 13-2 20-2 28 3s7 10 7 10-6-6-14-7c-10-1-14-2-21 2-6 3-7 6-5 12 2 5 9 5 12 6 3 2 9 4 11 12s-4 18-4 18-6 10-33 23c-28 12-24 9-46 21-12 7-13 7-23 16m-172-168c2 0 4-1 4-3s-2-3-4-3c-3 0-6 1-6 3s3 3 6 3"/>
 </g>
</svg>

<?xml version="1.1" encoding="UTF-8"?>
<svg xmlns="http://www.w3.org/2000/svg" version="1.1">
  <title>Perl 5 Raptor</title>
  <description>Copyright (C) 2012, Sebastian Riedel.</description>
  <g fill="none">
    <path d="M273,205 C265,213 266,214 262,223 C258,231 257,231 258,238 C258,242 260,241 264,245 C266,246 267,247 268,248 C270,251 269,251 271,253 C273,257 274,255 276,259 C278,264 278,265 277,271 C277,275 274,277 274,281 C273,291 272,299 272,300 C272,308 272,308 271,316 C271,324 270,324 268,331 C267,334 266,333 265,336 C264,339 265,338 264,341 C263,343 262,344 261,345 C261,345 260,345 259,345 C257,346 257,345 255,346 C253,347 252,346 251,348 C249,350 249,355 249,355 C249,355 248,352 247,350 C247,349 246,348 247,345 C247,342 248,342 249,339 C250,337 252,335 252,335 C248,337 248,338 243,340 C240,341 240,341 237,340 C235,339 235,338 235,338 C235,338 232,337 230,337 C227,338 223,343 223,343 C223,343 223,338 225,335 C226,331 226,331 229,329 C232,327 233,329 236,327 C241,324 245,319 245,319 C245,319 242,318 240,317 C237,315 237,315 235,312 C234,310 234,309 234,307 C235,305 237,303 237,303 C237,303 239,301 239,299 C240,297 240,296 239,294 C238,293 237,293 234,293 C232,293 232,292 230,293 C227,295 224,298 224,298 C224,298 224,294 226,292 C229,287 229,287 234,285 C238,283 239,283 243,283 C247,284 248,285 251,288 C253,289 254,299 254,299 C254,299 255,288 257,283 C258,279 257,274 257,274 C257,274 253,276 249,275 C243,274 242,274 236,270 C231,265 231,265 228,258 C226,254 227,252 225,248 C224,244 221,244 219,241 C216,236 213,231 213,231 C213,231 213,237 213,243 C213,248 213,247 213,253 C212,258 211,259 211,264 C211,270 212,269 214,274 C216,280 218,277 219,284 C219,287 217,293 217,293 C217,293 216,298 215,304 C214,312 215,313 214,321 C212,328 210,335 210,335 C210,335 209,341 205,345 C200,350 200,351 192,353 C189,354 189,353 187,353 C185,354 185,354 184,354 C183,355 182,354 180,355 C178,356 178,356 176,358 C174,359 171,363 171,363 C171,363 171,360 172,356 C173,352 178,349 178,349 C178,349 176,349 174,349 C172,350 172,350 170,350 C167,351 167,350 164,350 C161,351 158,355 158,355 C158,355 158,351 160,348 C162,345 163,345 166,343 C169,342 170,344 172,342 C179,338 179,337 185,332 C189,328 186,329 185,326 C184,324 184,324 184,322 C184,321 187,319 185,319 C181,320 179,320 178,323 C176,326 179,332 179,332 C179,332 173,330 172,327 C171,323 170,320 171,317 C173,313 175,309 179,307 C184,305 188,311 191,309 C195,306 194,306 195,301 C196,291 198,291 196,281 C193,272 191,272 186,263 C183,256 183,256 181,249 C179,242 183,240 180,235 C178,232 175,231 171,232 C168,233 167,235 166,238 C166,243 168,243 169,248 C171,254 170,254 171,260 C171,264 172,264 172,267 C171,270 171,270 170,272 C168,277 170,277 168,281 C166,285 163,287 163,287 C163,287 164,280 163,272 C163,270 162,271 161,268 C160,264 161,263 160,259 C159,250 158,241 158,241 C158,241 156,254 155,268 C155,271 156,271 156,274 C156,276 155,276 154,279 C154,284 154,284 154,290 C155,295 156,300 156,300 C156,300 153,298 151,295 C149,291 148,291 146,286 C145,283 145,283 145,279 C145,274 146,274 146,269 C147,258 147,247 147,247 L139,262 C139,262 139,265 138,267 C136,270 134,269 133,271 C131,273 132,274 133,277 C135,280 139,283 139,283 C139,283 133,282 129,279 C126,276 126,275 125,270 C124,268 124,267 126,264 C133,250 134,251 143,237 C149,228 152,219 155,218 C157,216 179,219 179,216 C178,213 148,192 146,191 C143,190 142,197 139,203 C137,207 139,208 136,210 C132,212 130,213 125,211 C110,204 112,199 97,192 C93,191 90,192 88,194 C83,199 81,207 83,207 C84,208 85,206 87,207 C89,207 91,206 93,206 C98,205 101,208 101,208 C101,208 97,208 94,210 C91,211 90,212 89,214 C88,216 86,215 85,216 C85,216 84,217 85,218 C86,219 87,217 89,217 C90,217 93,216 96,215 C100,213 100,213 104,210 C106,208 109,206 109,206 C109,206 109,210 107,213 C104,218 103,219 100,221 C95,225 92,224 92,225 C91,227 91,226 90,227 C90,228 90,229 91,229 C92,228 95,228 96,228 C97,229 99,228 101,227 C106,224 109,219 109,219 C109,219 108,227 104,230 C100,233 99,233 98,233 C97,234 97,234 96,235 C94,236 94,236 91,236 C89,235 84,232 79,229 C73,225 74,224 71,220 C66,214 63,212 64,206 C65,200 68,192 77,183 C83,178 87,175 95,177 C111,180 123,194 125,194 C126,193 133,173 133,162 C133,151 132,145 128,132 C124,116 120,101 118,100 C116,99 109,99 99,97 C85,96 83,95 69,94 C53,93 42,95 37,94 C33,93 33,92 32,91 C31,90 30,87 31,87 C32,87 33,86 33,86 L31,74 L37,85 L38,85 L35,70 L41,84 L43,84 L41,68 L47,83 L50,82 L48,71 L53,81 L56,81 L55,70 L59,80 L62,80 L59,67 L65,79 L67,78 L66,70 L71,76 L73,75 L71,66 L77,73 L78,73 L77,65 L80,72 L82,71 L82,67 L84,71 L85,71 L85,63 L88,70 L90,70 L90,65 L93,69 L95,69 L97,64 L99,68 C99,68 101,68 106,67 C112,65 118,62 118,62 L97,58 L94,63 L93,57 L91,56 L88,61 L87,56 L85,55 L82,61 L81,54 L79,54 L77,60 L75,53 L73,53 L72,62 L70,52 L69,52 L67,61 L65,52 L64,52 L63,64 L61,52 L60,52 L59,61 L58,52 L56,52 L54,64 L53,52 L52,52 L50,58 L49,51 L47,51 L45,61 L45,50 L43,50 L42,59 L41,50 L40,49 L38,63 L37,49 L36,49 L33,61 L32,48 C32,48 32,49 28,45 C23,42 27,37 29,33 C32,28 34,29 40,28 C63,26 62,28 85,27 C94,26 95,23 103,25 C110,26 111,27 117,30 C125,33 126,32 133,35 C141,38 142,38 149,43 C155,47 156,47 160,54 C165,63 165,63 167,74 C171,93 171,109 171,114 C171,119 172,118 176,120 C182,123 182,122 189,123 C199,124 200,123 210,125 C218,127 219,126 226,129 C233,132 239,138 239,138 C239,138 246,140 253,144 C257,146 257,147 261,149 C266,150 272,150 272,150 C272,150 286,150 301,148 C316,146 316,147 332,144 C342,141 351,137 351,137 C351,137 360,132 358,127 C356,122 349,122 345,117 C342,114 341,111 341,108 C340,105 341,101 345,97 C348,92 352,89 361,89 C374,87 381,87 389,92 C397,97 396,102 396,102 C396,102 390,96 382,95 C372,94 368,93 361,97 C355,100 354,103 356,109 C358,114 365,114 368,115 C371,117 377,119 379,127 C381,135 375,145 375,145 C375,145 369,155 342,168 C314,180 318,177 296,189 C284,196 283,196 273,205 L273,205 M101,37 C103,37 105,36 105,34 C105,32 103,31 101,31 C98,31 95,32 95,34 C95,36 98,37 101,37 L101,37" fill="rgb(0,0,0)"></path>
  </g>
</svg>
